assets/features/channel/southeast-asia1/Vietcombank.svg

<svg width="80" height="80" viewBox="0 0 80 80" fill="none" xmlns="http://www.w3.org/2000/svg">
<rect x="0.5" y="0.5" width="79" height="79" rx="7.5" fill="white"/>
<rect x="0.5" y="0.5" width="79" height="79" rx="7.5" stroke="#EEEEEE"/>
<path fill-rule="evenodd" clip-rule="evenodd" d="M34.4256 20.8608C31.6184 21.4474 30.6128 22.7044 30.6966 24.5479C30.8223 27.1037 33.6714 32.0059 35.0122 34.1846C37.3585 37.9974 40.1657 41.4331 43.2662 44.6174C45.7801 47.0894 47.3723 47.6341 50.0538 43.9889C52.3582 40.9722 54.4531 37.9555 56.2967 34.2265C57.0927 32.5925 57.8469 30.7908 58.4754 28.7797C59.1877 26.4334 58.9363 24.3384 56.6318 22.7882C58.8525 23.8775 59.8161 25.8468 59.9837 28.0674C60.1094 30.2042 59.481 32.5087 58.9782 34.2265C57.7631 38.4583 56.2129 42.7738 54.2436 46.5866C52.7772 49.4776 50.8917 52.9971 49.0063 55.5948C44.8583 61.3349 40.8361 59.4914 36.1434 55.5948C33.1686 53.1228 30.3195 50.0223 27.8475 46.6285C25.3755 43.1928 22.6521 38.1231 21.018 34.2265C18.7974 28.8635 20.5152 26.1401 23.2386 24.4222C26.2972 22.4111 30.7804 21.3636 34.4256 20.8608Z" fill="url(#paint0_linear_2497_22865)"/>
<path fill-rule="evenodd" clip-rule="evenodd" d="M34.3419 33.0533C38.6993 32.4248 49.9701 31.7125 53.9085 33.7656C55.2493 34.4359 55.2493 35.3577 55.1236 36.4471C55.5007 35.7348 55.9197 34.9806 56.2968 34.2264C57.0928 32.5924 57.847 30.7908 58.4755 28.7796C59.1878 26.4333 58.9364 24.3384 56.6319 22.7881C55.794 22.3272 54.7884 22.034 53.9085 21.7407C51.3108 20.9865 48.4198 20.6932 45.4869 20.4837C44.2719 20.3999 43.0149 20.3999 41.7579 20.3999C39.4535 20.3999 36.9396 20.5675 34.4257 20.9027C31.6185 21.4893 30.6129 22.7462 30.6967 24.5898C30.8224 26.7266 32.8754 30.5813 34.3419 33.0533Z" fill="url(#paint1_linear_2497_22865)"/>
<defs>
<linearGradient id="paint0_linear_2497_22865" x1="55.1048" y1="45.2754" x2="23.2624" y2="22.9791" gradientUnits="userSpaceOnUse">
<stop stop-color="#006840"/>
<stop offset="0.4" stop-color="#007A48"/>
<stop offset="1" stop-color="#86C440"/>
</linearGradient>
<linearGradient id="paint1_linear_2497_22865" x1="35.1325" y1="20.6558" x2="53.9754" y2="33.8497" gradientUnits="userSpaceOnUse">
<stop stop-color="#006840"/>
<stop offset="0.3" stop-color="#007A48"/>
<stop offset="1" stop-color="#86C440"/>
</linearGradient>
</defs>
</svg>

<svg xmlns="http://www.w3.org/2000/svg" width="80" height="80" fill="none" viewBox="0 0 80 80"><rect width="79" height="79" x=".5" y=".5" fill="#fff" rx="7.5"/><rect width="79" height="79" x=".5" y=".5" stroke="#eee" rx="7.5"/><path fill="url(#a)" fill-rule="evenodd" d="M34.426 20.86c-2.808.587-3.813 1.844-3.73 3.688.126 2.556 2.975 7.458 4.316 9.637 2.346 3.812 5.154 7.248 8.254 10.432 2.514 2.472 4.106 3.017 6.788-.628 2.304-3.017 4.4-6.033 6.243-9.762a39 39 0 0 0 2.178-5.447c.713-2.347.461-4.442-1.843-5.992 2.22 1.09 3.184 3.059 3.352 5.28.125 2.136-.503 4.44-1.006 6.159-1.215 4.231-2.765 8.547-4.734 12.36-1.467 2.89-3.352 6.41-5.238 9.008-4.148 5.74-8.17 3.896-12.863 0-2.974-2.472-5.823-5.573-8.295-8.966-2.472-3.436-5.196-8.506-6.83-12.402-2.22-5.363-.503-8.087 2.22-9.805 3.06-2.01 7.542-3.058 11.188-3.561" clip-rule="evenodd"/><path fill="url(#b)" fill-rule="evenodd" d="M34.342 33.053c4.357-.628 15.628-1.34 19.566.713 1.341.67 1.341 1.592 1.216 2.681.377-.712.796-1.466 1.173-2.22a39 39 0 0 0 2.178-5.447c.713-2.347.461-4.442-1.843-5.992-.838-.46-1.844-.754-2.724-1.047-2.597-.755-5.488-1.048-8.421-1.257-1.215-.084-2.472-.084-3.73-.084-2.303 0-4.817.168-7.331.503-2.808.586-3.813 1.843-3.73 3.687.126 2.137 2.18 5.991 3.646 8.463" clip-rule="evenodd"/><defs><linearGradient id="a" x1="55.105" x2="23.262" y1="45.275" y2="22.979" gradientUnits="userSpaceOnUse"><stop stop-color="#006840"/><stop offset=".4" stop-color="#007a48"/><stop offset="1" stop-color="#86c440"/></linearGradient><linearGradient id="b" x1="35.133" x2="53.975" y1="20.656" y2="33.85" gradientUnits="userSpaceOnUse"><stop stop-color="#006840"/><stop offset=".3" stop-color="#007a48"/><stop offset="1" stop-color="#86c440"/></linearGradient></defs></svg>
